icons/circle/48/lantern.svg

<svg version="1.1" viewBox="0 0 48 48" xmlns="http://www.w3.org/2000/svg">
 <defs>
  <linearGradient id="bg" x1="1" x2="47" gradientTransform="matrix(0 -1 1 0 -1.5e-6 48)" gradientUnits="userSpaceOnUse">
   <stop style="stop-color:#4eb8ca" offset="0"/>
   <stop style="stop-color:#5dbecf" offset="1"/>
  </linearGradient>
  <radialGradient id="radialGradient4274" cx="24" cy="27.9" r="8" gradientTransform="matrix(1 0 0 1.2375 0 -7.6262)" gradientUnits="userSpaceOnUse">
   <stop style="stop-color:#f9ed6f" offset="0"/>
   <stop style="stop-color:#f8e950" offset="1"/>
  </radialGradient>
 </defs>
 <path d="m36.31 5c5.859 4.062 9.688 10.831 9.688 18.5 0 12.426-10.07 22.5-22.5 22.5-7.669 0-14.438-3.828-18.5-9.688 1.037 1.822 2.306 3.499 3.781 4.969 4.085 3.712 9.514 5.969 15.469 5.969 12.703 0 23-10.298 23-23 0-5.954-2.256-11.384-5.969-15.469-1.469-1.475-3.147-2.744-4.969-3.781zm4.969 3.781c3.854 4.113 6.219 9.637 6.219 15.719 0 12.703-10.297 23-23 23-6.081 0-11.606-2.364-15.719-6.219 4.16 4.144 9.883 6.719 16.219 6.719 12.703 0 23-10.298 23-23 0-6.335-2.575-12.06-6.719-16.219z" style="opacity:.05"/>
 <path d="m41.28 8.781c3.712 4.085 5.969 9.514 5.969 15.469 0 12.703-10.297 23-23 23-5.954 0-11.384-2.256-15.469-5.969 4.113 3.854 9.637 6.219 15.719 6.219 12.703 0 23-10.298 23-23 0-6.081-2.364-11.606-6.219-15.719z" style="opacity:.1"/>
 <path d="m31.25 2.375c8.615 3.154 14.75 11.417 14.75 21.13 0 12.426-10.07 22.5-22.5 22.5-9.708 0-17.971-6.135-21.12-14.75a23 23 0 0 0 44.875-7 23 23 0 0 0-16-21.875z" style="opacity:.2"/>
 <path d="m24 1c12.703 0 23 10.297 23 23s-10.297 23-23 23-23-10.297-23-23 10.297-23 23-23z" style="fill:url(#bg)"/>
 <path d="m40.03 7.531c3.712 4.084 5.969 9.514 5.969 15.469 0 12.703-10.297 23-23 23-5.954 0-11.384-2.256-15.469-5.969 4.178 4.291 10.01 6.969 16.469 6.969 12.703 0 23-10.298 23-23 0-6.462-2.677-12.291-6.969-16.469z" style="opacity:.1"/>
 <path d="m25 10a2 2 0 0 0-2 2 2 2 0 0 0 0.213 0.895l-2.213 1.105v2l-3 1-1 3.5c0 3.137 0.762 14.523 6 16.869v0.131l2 0.5 2-0.5v-0.12c5.24-2.32 6-13.743 6-16.88l-1-3.5-3-1v-2l-2.211-1.105a2 2 0 0 0 0.211-0.895 2 2 0 0 0-2-2m0 1a1 1 0 0 1 1 1 1 1 0 0 1-0.107 0.447l-0.893-0.447-0.89 0.447a1 1 0 0 1-0.11-0.447 1 1 0 0 1 1-1" style="opacity:.1"/>
 <path d="m24 9a2 2 0 0 0-2 2 2 2 0 0 0 2 2 2 2 0 0 0 2-2 2 2 0 0 0-2-2zm0 1a1 1 0 0 1 1 1 1 1 0 0 1-1 1 1 1 0 0 1-1-1 1 1 0 0 1 1-1z" style="fill:#1e3848"/>
 <path d="m16 19.5c6-3.5 10-3.5 16 0 0 3.5-0.944 17.324-8 17.3-7.06-0.024-8-13.8-8-17.3" style="fill:url(#radialGradient4274)"/>
 <path d="m20 13 4-2 4 2v2l3 1 1 3.5-6-1.5v18.5l-2 0.5-2-0.5v-18.5l-6 1.5 1-3.5 3-1z" style="fill:#1e3848"/>
</svg>

<svg xmlns="http://www.w3.org/2000/svg" viewBox="0 0 48 48">
 <defs>
  <linearGradient id="linearGradient3764" x1="1" x2="47" gradientUnits="userSpaceOnUse" gradientTransform="matrix(0,-1,1,0,-1.5e-6,47.999998)">
   <stop style="stop-color:#4eb8ca;stop-opacity:1"/>
   <stop offset="1" style="stop-color:#5dbecf;stop-opacity:1"/>
  </linearGradient>
  <radialGradient id="radialGradient4274" cx="24" cy="27.9" r="8" gradientTransform="matrix(1,0,0,1.2375,0,-7.62625)" gradientUnits="userSpaceOnUse">
   <stop style="stop-color:#f9ed6f;stop-opacity:1"/>
   <stop offset="1" style="stop-color:#f8e950;stop-opacity:1"/>
  </radialGradient>
 </defs>
 <g>
  <path d="m 36.31 5 c 5.859 4.062 9.688 10.831 9.688 18.5 c 0 12.426 -10.07 22.5 -22.5 22.5 c -7.669 0 -14.438 -3.828 -18.5 -9.688 c 1.037 1.822 2.306 3.499 3.781 4.969 c 4.085 3.712 9.514 5.969 15.469 5.969 c 12.703 0 23 -10.298 23 -23 c 0 -5.954 -2.256 -11.384 -5.969 -15.469 c -1.469 -1.475 -3.147 -2.744 -4.969 -3.781 z m 4.969 3.781 c 3.854 4.113 6.219 9.637 6.219 15.719 c 0 12.703 -10.297 23 -23 23 c -6.081 0 -11.606 -2.364 -15.719 -6.219 c 4.16 4.144 9.883 6.719 16.219 6.719 c 12.703 0 23 -10.298 23 -23 c 0 -6.335 -2.575 -12.06 -6.719 -16.219 z" style="opacity:0.05"/>
  <path d="m 41.28 8.781 c 3.712 4.085 5.969 9.514 5.969 15.469 c 0 12.703 -10.297 23 -23 23 c -5.954 0 -11.384 -2.256 -15.469 -5.969 c 4.113 3.854 9.637 6.219 15.719 6.219 c 12.703 0 23 -10.298 23 -23 c 0 -6.081 -2.364 -11.606 -6.219 -15.719 z" style="opacity:0.1"/>
  <path d="m 31.25 2.375 c 8.615 3.154 14.75 11.417 14.75 21.13 c 0 12.426 -10.07 22.5 -22.5 22.5 c -9.708 0 -17.971 -6.135 -21.12 -14.75 a 23 23 0 0 0 44.875 -7 a 23 23 0 0 0 -16 -21.875 z" style="opacity:0.2"/>
 </g>
 <g>
  <path d="m 24 1 c 12.703 0 23 10.297 23 23 c 0 12.703 -10.297 23 -23 23 -12.703 0 -23 -10.297 -23 -23 0 -12.703 10.297 -23 23 -23 z" style="fill:url(#linearGradient3764);fill-opacity:1"/>
 </g>
 <g>
  <path d="m 40.03 7.531 c 3.712 4.084 5.969 9.514 5.969 15.469 0 12.703 -10.297 23 -23 23 c -5.954 0 -11.384 -2.256 -15.469 -5.969 4.178 4.291 10.01 6.969 16.469 6.969 c 12.703 0 23 -10.298 23 -23 0 -6.462 -2.677 -12.291 -6.969 -16.469 z" style="opacity:0.1"/>
 </g>
 <path d="m 25 10 a 2 2 0 0 0 -2 2 2 2 0 0 0 0.213 0.895 L 21 14 l 0 2 -3 1 -1 3.5 c 0 3.137 0.762 14.523 6 16.869 L 23 37.5 25 38 27 37.5 27 37.38 C 32.24 35.06 33 23.637 33 20.5 L 32 17 29 16 29 14 26.789 12.895 A 2 2 0 0 0 27 12 2 2 0 0 0 25 10 m 0 1 a 1 1 0 0 1 1 1 1 1 0 0 1 -0.107 0.447 L 25 12 24.11 12.447 A 1 1 0 0 1 24 12 1 1 0 0 1 25 11" style="fill:#000;opacity:0.1;fill-opacity:1;stroke:none"/>
 <path d="m 24 9 a 2 2 0 0 0 -2 2 2 2 0 0 0 2 2 2 2 0 0 0 2 -2 2 2 0 0 0 -2 -2 z m 0 1 a 1 1 0 0 1 1 1 1 1 0 0 1 -1 1 1 1 0 0 1 -1 -1 1 1 0 0 1 1 -1 z" style="fill:#1a303e;opacity:1;fill-opacity:1;stroke:none"/>
 <path d="m 16 19.5 c 6 -3.5 10 -3.5 16 0 0 3.5 -0.944 17.324 -8 17.3 -7.06 -0.024 -8 -13.8 -8 -17.3" style="fill:url(#radialGradient4274);opacity:1;fill-opacity:1;stroke:none"/>
 <path d="m 20,13 4,-2 4,2 0,2 3,1 1,3.5 L 26,18 26,36.5 24,37 22,36.5 22,18 16,19.5 17,16 20,15 Z" style="fill:#1a303e;opacity:1;fill-opacity:1;stroke:none"/>
</svg>
